X: 1
T: Bonny Kate
C: Trad
R: Polka
M: 2/4
L: 1/8
K: G
Q: 1/4=140
Z: ABC transcription by Verge Roller
r: 32
|: f | "G" g>f g>f | "G" gd dB | "Am" c/d/e "D" d>c | "G" BG G>A |
"G" BG GA/B/ | "Am" cA "D" AB/c/ | [1 "G" B/c/d cB | "D" Ad e :| [2 "G" B/c/d cB | "D" A2 z |]
|: c | "G" BG GA/B/ | "D" cA "Bm" dB | "Am" ec cd/e/ | "D" f2 ef |
"G" g>f "C" ge | "D" d/e/f "G" gB | "Am" c/d/e "D" d>c | "G" BG G :|
